assets/svg/1F698.svg

<svg xmlns="http://www.w3.org/2000/svg" viewBox="0 0 64 64" enable-background="new 0 0 64 64"><g transform="translate(0 10)"><g fill="#1c282b"><path d="m11.929 43.47c0 2.725-2.208 4.932-4.932 4.932l0 0c-2.724 0-4.932-2.207-4.932-4.932v-8.19c0-2.724 2.208-4.931 4.932-4.931l0 0c2.724 0 4.932 2.207 4.932 4.931v8.19"/><path d="m61.62 43.47c0 2.725-2.207 4.932-4.932 4.932l0 0c-2.725 0-4.932-2.207-4.932-4.932v-8.19c0-2.724 2.207-4.931 4.932-4.931l0 0c2.725 0 4.932 2.207 4.932 4.931v8.19"/></g><path d="m59.3 20.309c0 7.196-6.992 5.736-15.616 5.736h-23.317c-8.624 0-15.617 1.459-15.617-5.736l2.233-7.287c0-7.192 6.993-13.02 15.617-13.02h18.85c8.624 0 15.616 5.83 15.616 13.02l2.234 7.288" fill="#b2334e"/><path d="m57.803 22.08c0 6.799-6.606 5.42-14.756 5.42h-22.04c-8.149 0-14.758 1.378-14.758-5.42l2.109-6.888c0-6.797 6.611-12.306 14.76-12.306h17.813c8.151 0 14.76 5.509 14.76 12.306l2.11 6.888" fill="#a2c3cb"/><path d="m35.24 18.662c-5.623-2.711-14.725-8.57-16.208-15.288-6.162 1.479-10.677 6.204-10.677 11.818l-2.109 6.888c0 6.799 6.609 5.42 14.758 5.42h22.04c6.629 0 12.238.912 14.1-2.41-7.626-1.263-15.1-3.148-21.902-6.428" fill="#8eb1b7"/><path d="m64.05 28.05c0 7.468-8.21 13.519-18.335 13.519h-27.382c-10.125 0-18.337-6.05-18.337-13.519l0 0c0-7.464 8.212-13.516 18.337-13.516h27.382c10.125 0 18.335 6.05 18.335 13.516l0 0" fill="#de374b"/><path d="m4.672 19.06c-2.894 2.388-4.672 5.531-4.672 8.988 0 7.468 8.212 13.519 18.337 13.519h6.214c-1.813-4.774-6.712-20.579-19.879-22.507" fill="#c5344d"/><path d="m55.732 39.37c0 1.987-1.845 3.592-4.122 3.592h-40.493c-2.279 0-4.12-1.604-4.12-3.592l0 0c0-1.985 1.841-3.593 4.12-3.593h40.493c2.278 0 4.122 1.608 4.122 3.593l0 0" fill="#e4e4e4"/><path d="m7.54 37.62c-.336.52-.543 1.112-.543 1.752 0 1.987 1.841 3.592 4.12 3.592h40.493c1.597 0 2.966-.798 3.651-1.956-13.873.518-35.19 1.385-47.721-3.388" fill="#d1d2d3"/><g fill="#e4e4e4"><path d="m15.988 30.11c-.711 1.998-2.766 3.091-4.591 2.438l-4.929-1.76c-1.826-.65-2.725-2.799-2.01-4.796l0 0c.713-1.996 2.77-3.089 4.593-2.437l4.932 1.76c1.822.653 2.721 2.798 2.01 4.795l0 0"/><path d="m47.525 30.11c.711 1.998 2.766 3.091 4.591 2.438l4.93-1.76c1.825-.65 2.724-2.799 2.01-4.796l0 0c-.715-1.996-2.77-3.089-4.593-2.437l-4.935 1.76c-1.823.653-2.721 2.798-2.01 4.795l0 0"/></g></g></svg>

<?xml version="1.0" encoding="UTF-8" standalone="no"?>
<!-- Generator: Adobe Illustrator 16.0.0, SVG Export Plug-In . SVG Version: 6.00 Build 0)  -->

<svg
   xmlns:dc="http://purl.org/dc/elements/1.1/"
   xmlns:cc="http://creativecommons.org/ns#"
   xmlns:rdf="http://www.w3.org/1999/02/22-rdf-syntax-ns#"
   xmlns:svg="http://www.w3.org/2000/svg"
   xmlns="http://www.w3.org/2000/svg"
   xmlns:sodipodi="http://sodipodi.sourceforge.net/DTD/sodipodi-0.dtd"
   xmlns:inkscape="http://www.inkscape.org/namespaces/inkscape"
   version="1.1"
   id="Layer_1"
   x="0px"
   y="0px"
   width="64px"
   height="64px"
   viewBox="0 0 64 64"
   enable-background="new 0 0 64 64"
   xml:space="preserve"
   inkscape:version="0.48.5 r10040"
   sodipodi:docname="1F698.svg"
   inkscape:export-filename="D:\TESTINGEMOJI\SVGTEST\1F698.png"
   inkscape:export-xdpi="90"
   inkscape:export-ydpi="90"><metadata
   id="metadata3747"><rdf:RDF><cc:Work
       rdf:about=""><dc:format>image/svg+xml</dc:format><dc:type
         rdf:resource="http://purl.org/dc/dcmitype/StillImage" /><dc:title></dc:title></cc:Work></rdf:RDF></metadata><defs
   id="defs3745" /><sodipodi:namedview
   pagecolor="#ffffff"
   bordercolor="#666666"
   borderopacity="1"
   objecttolerance="10"
   gridtolerance="10"
   guidetolerance="10"
   inkscape:pageopacity="0"
   inkscape:pageshadow="2"
   inkscape:window-width="640"
   inkscape:window-height="480"
   id="namedview3743"
   showgrid="false"
   inkscape:zoom="3.6875"
   inkscape:cx="32"
   inkscape:cy="32"
   inkscape:window-x="816"
   inkscape:window-y="290"
   inkscape:window-maximized="0"
   inkscape:current-layer="Layer_1" />
<g
   id="g3719"
   transform="translate(0,10)">
	<path
   d="m 11.929,43.466 c 0,2.725 -2.208,4.932 -4.932,4.932 l 0,0 c -2.724,0 -4.932,-2.207 -4.932,-4.932 v -8.19 c 0,-2.724 2.208,-4.931 4.932,-4.931 l 0,0 c 2.724,0 4.932,2.207 4.932,4.931 v 8.19 z"
   id="path3721"
   inkscape:connector-curvature="0"
   style="fill:#1c282b" />
	<path
   d="m 61.624,43.466 c 0,2.725 -2.207,4.932 -4.932,4.932 l 0,0 c -2.725,0 -4.932,-2.207 -4.932,-4.932 v -8.19 c 0,-2.724 2.207,-4.931 4.932,-4.931 l 0,0 c 2.725,0 4.932,2.207 4.932,4.931 v 8.19 z"
   id="path3723"
   inkscape:connector-curvature="0"
   style="fill:#1c282b" />
	<path
   d="m 59.303,20.309 c 0,7.196 -6.992,5.736 -15.616,5.736 H 20.37 c -8.624,0 -15.617,1.459 -15.617,-5.736 L 6.986,13.022 C 6.986,5.83 13.979,0 22.603,0 h 18.85 c 8.624,0 15.616,5.83 15.616,13.021 l 2.234,7.288 z"
   id="path3725"
   inkscape:connector-curvature="0"
   style="fill:#b2334e" />
	<path
   d="m 57.803,22.08 c 0,6.799 -6.606,5.42 -14.756,5.42 H 21.009 C 12.86,27.5 6.251,28.878 6.251,22.08 L 8.36,15.192 C 8.36,8.395 14.971,2.886 23.12,2.886 h 17.813 c 8.151,0 14.76,5.509 14.76,12.306 l 2.11,6.888 z"
   id="path3727"
   inkscape:connector-curvature="0"
   style="fill:#a2c3cb" />
	<path
   d="M 35.245,18.662 C 29.622,15.951 20.52,10.092 19.037,3.374 12.875,4.853 8.36,9.578 8.36,15.192 L 6.251,22.08 c 0,6.799 6.609,5.42 14.758,5.42 h 22.038 c 6.629,0 12.238,0.912 14.1,-2.41 -7.626,-1.263 -15.103,-3.148 -21.902,-6.428 z"
   id="path3729"
   inkscape:connector-curvature="0"
   style="fill:#8eb1b7" />
	<path
   d="m 64.054,28.049 c 0,7.468 -8.21,13.519 -18.335,13.519 H 18.337 C 8.212,41.568 0,35.518 0,28.049 l 0,0 C 0,20.585 8.212,14.533 18.337,14.533 h 27.382 c 10.125,0 18.335,6.052 18.335,13.516 l 0,0 z"
   id="path3731"
   inkscape:connector-curvature="0"
   style="fill:#de374b" />
	<path
   d="M 4.672,19.061 C 1.778,21.449 0,24.592 0,28.049 0,35.517 8.212,41.568 18.337,41.568 h 6.214 C 22.738,36.794 17.839,20.989 4.672,19.061 z"
   id="path3733"
   inkscape:connector-curvature="0"
   style="fill:#c5344d" />
	<path
   d="m 55.732,39.372 c 0,1.987 -1.845,3.592 -4.122,3.592 H 11.117 c -2.279,0 -4.12,-1.604 -4.12,-3.592 l 0,0 c 0,-1.985 1.841,-3.593 4.12,-3.593 H 51.61 c 2.278,0 4.122,1.608 4.122,3.593 l 0,0 z"
   id="path3735"
   inkscape:connector-curvature="0"
   style="fill:#e4e4e4" />
	<path
   d="m 7.54,37.62 c -0.336,0.52 -0.543,1.112 -0.543,1.752 0,1.987 1.841,3.592 4.12,3.592 H 51.61 c 1.597,0 2.966,-0.798 3.651,-1.956 C 41.388,41.526 20.073,42.393 7.54,37.62 z"
   id="path3737"
   inkscape:connector-curvature="0"
   style="fill:#d1d2d3" />
	<path
   d="m 15.988,30.108 c -0.711,1.998 -2.766,3.091 -4.591,2.438 L 6.468,30.786 C 4.642,30.136 3.743,27.987 4.455,25.99 l 0,0 c 0.713,-1.996 2.77,-3.089 4.593,-2.437 l 4.932,1.76 c 1.822,0.653 2.721,2.798 2.008,4.795 l 0,0 z"
   id="path3739"
   inkscape:connector-curvature="0"
   style="fill:#e4e4e4" />
	<path
   d="m 47.525,30.108 c 0.711,1.998 2.766,3.091 4.591,2.438 l 4.93,-1.76 c 1.825,-0.65 2.724,-2.799 2.013,-4.796 l 0,0 c -0.715,-1.996 -2.77,-3.089 -4.593,-2.437 l -4.935,1.76 c -1.823,0.653 -2.721,2.798 -2.006,4.795 l 0,0 z"
   id="path3741"
   inkscape:connector-curvature="0"
   style="fill:#e4e4e4" />
</g>
</svg>
